src/assets/outline/Routing2.svg

<svg width="24" height="24" viewBox="0 0 24 24"  xmlns="http://www.w3.org/2000/svg">
<path d="M5.50977 6.5C4.95977 6.5 4.50977 6.05 4.50977 5.5C4.50977 4.95 4.94977 4.5 5.50977 4.5H5.51977C6.06977 4.5 6.51977 4.95 6.51977 5.5C6.51977 6.05 6.06977 6.5 5.50977 6.5Z" />
<path d="M18.5098 19.5C17.9598 19.5 17.5098 19.05 17.5098 18.5C17.5098 17.95 17.9498 17.5 18.5098 17.5H18.5198C19.0698 17.5 19.5198 17.95 19.5198 18.5C19.5198 19.05 19.0698 19.5 18.5098 19.5Z" />
<path d="M5.47021 9.75C3.13021 9.75 1.22021 7.84 1.22021 5.5C1.22021 3.16 3.13021 1.25 5.47021 1.25C7.81021 1.25 9.72021 3.16 9.72021 5.5C9.72021 7.84 7.82021 9.75 5.47021 9.75ZM5.47021 2.75C3.95021 2.75 2.72021 3.98 2.72021 5.5C2.72021 7.02 3.95021 8.25 5.47021 8.25C6.99021 8.25 8.22021 7.02 8.22021 5.5C8.22021 3.98 6.99021 2.75 5.47021 2.75Z" />
<path d="M19.9702 22.75H16.9702C15.4502 22.75 14.2202 21.52 14.2202 20V17C14.2202 15.48 15.4502 14.25 16.9702 14.25H19.9702C21.4902 14.25 22.7202 15.48 22.7202 17V20C22.7202 21.52 21.4902 22.75 19.9702 22.75ZM16.9702 15.75C16.2802 15.75 15.7202 16.31 15.7202 17V20C15.7202 20.69 16.2802 21.25 16.9702 21.25H19.9702C20.6602 21.25 21.2202 20.69 21.2202 20V17C21.2202 16.31 20.6602 15.75 19.9702 15.75H16.9702Z" />
<path d="M11.9999 19.75H9.31994C8.15994 19.75 7.14994 19.05 6.74994 17.97C6.33994 16.89 6.63994 15.7 7.50994 14.93L15.4999 7.94C15.9799 7.52 15.9899 6.95 15.8499 6.56C15.6999 6.17 15.3199 5.75 14.6799 5.75H11.9999C11.5899 5.75 11.2499 5.41 11.2499 5C11.2499 4.59 11.5899 4.25 11.9999 4.25H14.6799C15.8399 4.25 16.8499 4.95 17.2499 6.03C17.6599 7.11 17.3599 8.3 16.4899 9.07L8.49994 16.06C8.01994 16.48 8.00994 17.05 8.14994 17.44C8.29994 17.83 8.67994 18.25 9.31994 18.25H11.9999C12.4099 18.25 12.7499 18.59 12.7499 19C12.7499 19.41 12.4099 19.75 11.9999 19.75Z" />
</svg>

<?xml version="1.0" encoding="UTF-8"?>
<svg width="24" height="24" viewBox="0 0 24 24" xmlns="http://www.w3.org/2000/svg">
 <path d="m5.5098 6.5c-0.55 0-1-0.45-1-1s0.44-1 1-1h0.01c0.55 0 1 0.45 1 1s-0.45 1-1.01 1z"/>
 <path d="m18.51 19.5c-0.55 0-1-0.45-1-1s0.44-1 1-1h0.01c0.55 0 1 0.45 1 1s-0.45 1-1.01 1z"/>
 <path d="m5.4702 9.75c-2.34 0-4.25-1.91-4.25-4.25s1.91-4.25 4.25-4.25 4.25 1.91 4.25 4.25-1.9 4.25-4.25 4.25zm0-7c-1.52 0-2.75 1.23-2.75 2.75s1.23 2.75 2.75 2.75 2.75-1.23 2.75-2.75-1.23-2.75-2.75-2.75z"/>
 <path d="m19.97 22.75h-3c-1.52 0-2.75-1.23-2.75-2.75v-3c0-1.52 1.23-2.75 2.75-2.75h3c1.52 0 2.75 1.23 2.75 2.75v3c0 1.52-1.23 2.75-2.75 2.75zm-3-7c-0.69 0-1.25 0.56-1.25 1.25v3c0 0.69 0.56 1.25 1.25 1.25h3c0.69 0 1.25-0.56 1.25-1.25v-3c0-0.69-0.56-1.25-1.25-1.25h-3z"/>
 <path d="m12 19.75h-2.68c-1.16 0-2.17-0.7-2.57-1.78-0.41-1.08-0.11-2.27 0.76-3.04l7.99-6.99c0.48-0.42 0.49-0.99 0.35-1.38-0.15-0.39-0.53-0.81-1.17-0.81h-2.68c-0.41 0-0.75-0.34-0.75-0.75s0.34-0.75 0.75-0.75h2.68c1.16 0 2.17 0.7 2.57 1.78 0.41 1.08 0.11 2.27-0.76 3.04l-7.99 6.99c-0.48 0.42-0.49 0.99-0.35 1.38 0.15 0.39 0.53 0.81 1.17 0.81h2.68c0.41 0 0.75 0.34 0.75 0.75s-0.34 0.75-0.75 0.75z"/>
</svg>
